icons/icon.svg

<?xml version="1.0" encoding="UTF-8" standalone="no"?>
<svg width="26" height="26" viewBox="0 0 28 28" fill="currentColor" version="1.1" id="svg3"
   xmlns="http://www.w3.org/2000/svg">
   <defs>
      <linearGradient id="fileGradient" x1="0" y1="0" x2="0" y2="1">
         <stop offset="0%" stop-color="#006eff" />
         <stop offset="100%" stop-color="#114283" />
      </linearGradient>
   </defs>

   <!-- file with gradient fill -->
   <path fill-rule="evenodd"
      d="M3 3a2 2 0 0 1 2-2h9.982a2 2 0 0 1 1.414.586l4.018 4.018A2 2 0 0 1 21 7.018V21a2 2 0 0 1-2 2H5a2 2 0 0 1-2-2Zm2-.5a.5.5 0 0 0-.5.5v18a.5.5 0 0 0 .5.5h14a.5.5 0 0 0 .5-.5V8.5h-4a2 2 0 0 1-2-2v-4Zm10 0v4a.5.5 0 0 0 .5.5h4a.5.5 0 0 0-.146-.336l-4.018-4.018A.5.5 0 0 0 15 2.5Z"
      style="fill:url(#fileGradient)" />

   <!-- markdown logo with gradient fill -->
   <g transform="translate(6.6 9.6) scale(0.45)" style="fill:url(#fileGradient);fill-opacity:1">
      <path
         d="M22.289 4.5A1.71 1.71 0 0 1 24 6.226v11.557c0 .946-.766 1.726-1.726 1.726H1.726A1.74 1.74 0 0 1 0 17.768V6.226C0 5.28.78 4.5 1.726 4.5Zm-8.781 12.007V7.501h-3.002l-2.251 3.002-2.252-3.002H3.002v9.006h3.001v-4.503l2.252 2.882 2.251-2.882v4.503Zm4.489.75 3.767-5.253h-2.251V7.501h-3.002v4.503h-2.252Z" />
   </g>

   <!-- share icon in modern gray -->
   <g transform="translate(14.5 16.5) scale(0.5)" style="fill:#4B5563;fill-opacity:1">
      <path
         d="M5.5 9.75v10.5c0 .138.112.25.25.25h12.5a.25.25 0 0 0 .25-.25V9.75a.25.25 0 0 0-.25-.25h-2.5a.75.75 0 0 1 0-1.5h2.5c.966 0 1.75.784 1.75 1.75v10.5A1.75 1.75 0 0 1 18.25 22H5.75A1.75 1.75 0 0 1 4 20.25V9.75C4 8.784 4.784 8 5.75 8h2.5a.75.75 0 0 1 0 1.5h-2.5a.25.25 0 0 0-.25.25Zm7.03-8.53 3.25 3.25a.749.749 0 0 1-.326 1.275.749.749 0 0 1-.734-.215l-1.97-1.97v10.69a.75.75 0 0 1-1.5 0V3.56L9.28 5.53a.751.751 0 0 1-1.042-.018.751.751 0 0 1-.018-1.042l3.25-3.25a.75.75 0 0 1 1.06 0Z" />
   </g>
</svg>

<?xml version="1.0" encoding="UTF-8"?>
<svg width="26" height="26" viewBox="0 0 28 28" xmlns="http://www.w3.org/2000/svg">
   <defs>
      <linearGradient id="fileGradient" x1="0" y1="0" x2="0" y2="1">
         <stop offset="0%" stop-color="#006eff" />
         <stop offset="100%" stop-color="#114283" />
      </linearGradient>
   </defs>

   <!-- file with gradient fill -->
   <path fill-rule="evenodd" style="fill:url(#fileGradient)"
      d="M3 3a2 2 0 0 1 2-2h9.982a2 2 0 0 1 1.414.586l4.018 4.018A2 2 0 0 1 21 7.018V21a2 2 0 0 1-2 2H5a2 2 0 0 1-2-2Zm2-.5a.5.5 0 0 0-.5.5v18a.5.5 0 0 0 .5.5h14a.5.5 0 0 0 .5-.5V8.5h-4a2 2 0 0 1-2-2v-4Zm10 0v4a.5.5 0 0 0 .5.5h4a.5.5 0 0 0-.146-.336l-4.018-4.018A.5.5 0 0 0 15 2.5Z" />

   <!-- markdown logo with gradient fill -->
   <g transform="translate(6.6 9.6) scale(0.45)" style="fill:url(#fileGradient);fill-opacity:1">
      <path
         d="M22.289 4.5A1.71 1.71 0 0 1 24 6.226v11.557c0 .946-.766 1.726-1.726 1.726H1.726A1.74 1.74 0 0 1 0 17.768V6.226C0 5.28.78 4.5 1.726 4.5Zm-8.781 12.007V7.501h-3.002l-2.251 3.002-2.252-3.002H3.002v9.006h3.001v-4.503l2.252 2.882 2.251-2.882v4.503Zm4.489.75 3.767-5.253h-2.251V7.501h-3.002v4.503h-2.252Z" />
   </g>

   <!-- share icon in modern gray -->
   <g transform="matrix(0.6889485,0,0,0.6889485,14.24018,12.884196)" style="fill:#4b5563;fill-opacity:1">
      <path
         d="m 5.5,9.75 v 10.5 c 0,0.138 0.112,0.25 0.25,0.25 h 12.5 A 0.25,0.25 0 0 0 18.5,20.25 V 9.75 A 0.25,0.25 0 0 0 18.25,9.5 h -2.5 a 0.75,0.75 0 0 1 0,-1.5 h 2.5 C 19.216,8 20,8.784 20,9.75 v 10.5 A 1.75,1.75 0 0 1 18.25,22 H 5.75 A 1.75,1.75 0 0 1 4,20.25 V 9.75 C 4,8.784 4.784,8 5.75,8 h 2.5 a 0.75,0.75 0 0 1 0,1.5 H 5.75 A 0.25,0.25 0 0 0 5.5,9.75 Z m 7.03,-8.53 3.25,3.25 A 0.749,0.749 0 0 1 15.454,5.745 0.749,0.749 0 0 1 14.72,5.53 L 12.75,3.56 v 10.69 a 0.75,0.75 0 0 1 -1.5,0 V 3.56 L 9.28,5.53 A 0.751,0.751 0 0 1 8.238,5.512 0.751,0.751 0 0 1 8.22,4.47 l 3.25,-3.25 a 0.75,0.75 0 0 1 1.06,0 z" />
   </g>
</svg>
